bernoullicharts/1_-_log_1_x_alt_series__bits.svg

<?xml version="1.0" encoding="utf-8" standalone="no"?>
<!DOCTYPE svg PUBLIC "-//W3C//DTD SVG 1.1//EN"
  "http://www.w3.org/Graphics/SVG/1.1/DTD/svg11.dtd">
<!-- Created with matplotlib (https://matplotlib.org/) -->
<svg height="345.6pt" version="1.1" viewBox="0 0 460.8 345.6" width="460.8pt" xmlns="http://www.w3.org/2000/svg" xmlns:xlink="http://www.w3.org/1999/xlink">
 <defs>
  <style type="text/css">
*{stroke-linecap:butt;stroke-linejoin:round;}
  </style>
 </defs>
 <g id="figure_1">
  <g id="patch_1">
   <path d="M 0 345.6 
L 460.8 345.6 
L 460.8 0 
L 0 0 
z
" style="fill:#ffffff;"/>
  </g>
  <g id="axes_1">
   <g id="patch_2">
    <path d="M 57.6 307.584 
L 414.72 307.584 
L 414.72 41.472 
L 57.6 41.472 
z
" style="fill:#ffffff;"/>
   </g>
   <g id="matplotlib.axis_1">
    <g id="xtick_1">
     <g id="line2d_1">
      <defs>
       <path d="M 0 0 
L 0 3.5 
" id="macfaa701bf" style="stroke:#000000;stroke-width:0.8;"/>
      </defs>
      <g>
       <use style="stroke:#000000;stroke-width:0.8;" x="73.800255" xlink:href="#macfaa701bf" y="307.584"/>
      </g>
     </g>
     <g id="text_1">
      <text style="font-family:DejaVu Sans;font-size:10px;font-style:normal;font-weight:normal;text-anchor:middle;" transform="rotate(-0, 73.800255, 322.182437)" x="73.800255" y="322.182437">0.0</text>
     </g>
    </g>
    <g id="xtick_2">
     <g id="line2d_2">
      <g>
       <use style="stroke:#000000;stroke-width:0.8;" x="138.744153" xlink:href="#macfaa701bf" y="307.584"/>
      </g>
     </g>
     <g id="text_2">
      <text style="font-family:DejaVu Sans;font-size:10px;font-style:normal;font-weight:normal;text-anchor:middle;" transform="rotate(-0, 138.744153, 322.182437)" x="138.744153" y="322.182437">0.2</text>
     </g>
    </g>
    <g id="xtick_3">
     <g id="line2d_3">
      <g>
       <use style="stroke:#000000;stroke-width:0.8;" x="203.688051" xlink:href="#macfaa701bf" y="307.584"/>
      </g>
     </g>
     <g id="text_3">
      <text style="font-family:DejaVu Sans;font-size:10px;font-style:normal;font-weight:normal;text-anchor:middle;" transform="rotate(-0, 203.688051, 322.182437)" x="203.688051" y="322.182437">0.4</text>
     </g>
    </g>
    <g id="xtick_4">
     <g id="line2d_4">
      <g>
       <use style="stroke:#000000;stroke-width:0.8;" x="268.631949" xlink:href="#macfaa701bf" y="307.584"/>
      </g>
     </g>
     <g id="text_4">
      <text style="font-family:DejaVu Sans;font-size:10px;font-style:normal;font-weight:normal;text-anchor:middle;" transform="rotate(-0, 268.631949, 322.182437)" x="268.631949" y="322.182437">0.6</text>
     </g>
    </g>
    <g id="xtick_5">
     <g id="line2d_5">
      <g>
       <use style="stroke:#000000;stroke-width:0.8;" x="333.575847" xlink:href="#macfaa701bf" y="307.584"/>
      </g>
     </g>
     <g id="text_5">
      <text style="font-family:DejaVu Sans;font-size:10px;font-style:normal;font-weight:normal;text-anchor:middle;" transform="rotate(-0, 333.575847, 322.182437)" x="333.575847" y="322.182437">0.8</text>
     </g>
    </g>
    <g id="xtick_6">
     <g id="line2d_6">
      <g>
       <use style="stroke:#000000;stroke-width:0.8;" x="398.519745" xlink:href="#macfaa701bf" y="307.584"/>
      </g>
     </g>
     <g id="text_6">
      <text style="font-family:DejaVu Sans;font-size:10px;font-style:normal;font-weight:normal;text-anchor:middle;" transform="rotate(-0, 398.519745, 322.182437)" x="398.519745" y="322.182437">1.0</text>
     </g>
    </g>
    <g id="text_7">
     <text style="font-family:DejaVu Sans;font-size:10px;font-style:normal;font-weight:normal;text-anchor:middle;" transform="rotate(-0, 236.16, 335.860562)" x="236.16" y="335.860562">Probability</text>
    </g>
   </g>
   <g id="matplotlib.axis_2">
    <g id="ytick_1">
     <g id="line2d_7">
      <defs>
       <path d="M 0 0 
L -3.5 0 
" id="mb3ffa5ea8a" style="stroke:#000000;stroke-width:0.8;"/>
      </defs>
      <g>
       <use style="stroke:#000000;stroke-width:0.8;" x="57.6" xlink:href="#mb3ffa5ea8a" y="259.773567"/>
      </g>
     </g>
     <g id="text_8">
      <text style="font-family:DejaVu Sans;font-size:10px;font-style:normal;font-weight:normal;text-anchor:end;" transform="rotate(-0, 50.6, 263.572786)" x="50.6" y="263.572786">5</text>
     </g>
    </g>
    <g id="ytick_2">
     <g id="line2d_8">
      <g>
       <use style="stroke:#000000;stroke-width:0.8;" x="57.6" xlink:href="#mb3ffa5ea8a" y="201.720198"/>
      </g>
     </g>
     <g id="text_9">
      <text style="font-family:DejaVu Sans;font-size:10px;font-style:normal;font-weight:normal;text-anchor:end;" transform="rotate(-0, 50.6, 205.519417)" x="50.6" y="205.519417">10</text>
     </g>
    </g>
    <g id="ytick_3">
     <g id="line2d_9">
      <g>
       <use style="stroke:#000000;stroke-width:0.8;" x="57.6" xlink:href="#mb3ffa5ea8a" y="143.666829"/>
      </g>
     </g>
     <g id="text_10">
      <text style="font-family:DejaVu Sans;font-size:10px;font-style:normal;font-weight:normal;text-anchor:end;" transform="rotate(-0, 50.6, 147.466048)" x="50.6" y="147.466048">15</text>
     </g>
    </g>
    <g id="ytick_4">
     <g id="line2d_10">
      <g>
       <use style="stroke:#000000;stroke-width:0.8;" x="57.6" xlink:href="#mb3ffa5ea8a" y="85.61346"/>
      </g>
     </g>
     <g id="text_11">
      <text style="font-family:DejaVu Sans;font-size:10px;font-style:normal;font-weight:normal;text-anchor:end;" transform="rotate(-0, 50.6, 89.412679)" x="50.6" y="89.412679">20</text>
     </g>
    </g>
    <g id="text_12">
     <text style="font-family:DejaVu Sans;font-size:10px;font-style:normal;font-weight:normal;text-anchor:middle;" transform="rotate(-90, 31.795312, 174.528)" x="31.795312" y="174.528">Average Bits Consumed Per Call</text>
    </g>
   </g>
   <g id="line2d_11">
    <path clip-path="url(#pee3f9c5c45)" d="M 73.832727 295.488 
L 77.112066 294.466261 
L 80.391405 294.373375 
L 83.670744 292.933652 
L 86.950083 292.074462 
L 90.229421 294.048276 
L 93.50876 293.467743 
L 96.788099 294.373375 
L 100.067438 292.585332 
L 103.346777 291.795806 
L 106.626116 293.07298 
L 109.905455 292.283454 
L 113.184793 291.192051 
L 116.464132 292.863988 
L 119.743471 289.218236 
L 123.02281 290.054205 
L 126.302149 288.846695 
L 129.581488 290.030983 
L 132.860826 287.290864 
L 136.140165 287.685627 
L 139.419504 290.448968 
L 142.698843 288.033947 
L 145.978182 289.496892 
L 149.257521 286.17624 
L 152.53686 289.938098 
L 155.816198 287.105093 
L 159.095537 287.708849 
L 162.374876 287.56952 
L 165.654215 283.25035 
L 168.933554 284.318532 
L 172.212893 282.04284 
L 175.492231 283.366457 
L 178.77157 283.761219 
L 182.050909 281.508749 
L 185.330248 283.412899 
L 188.609587 280.649559 
L 191.888926 278.9544 
L 195.168264 278.9544 
L 198.447603 280.556673 
L 201.726942 277.886218 
L 205.006281 277.166357 
L 208.28562 276.237503 
L 211.564959 274.077917 
L 214.844298 276.283945 
L 218.123636 274.612008 
L 221.402975 272.359538 
L 224.682314 273.42772 
L 227.961653 273.125842 
L 231.240992 271.755783 
L 234.520331 272.150546 
L 237.799669 270.083846 
L 241.079008 269.410427 
L 244.358347 269.596197 
L 247.637686 267.506276 
L 250.917025 265.369912 
L 254.196364 265.300248 
L 257.475702 264.255287 
L 260.755041 265.973667 
L 264.03438 263.349655 
L 267.313719 264.255287 
L 270.593058 261.863489 
L 273.872397 261.097184 
L 277.151736 257.24244 
L 280.431074 256.731571 
L 283.710413 256.267144 
L 286.989752 252.133744 
L 290.269091 253.759238 
L 293.54843 255.361511 
L 296.827769 250.438586 
L 300.107107 249.370404 
L 303.386446 248.975641 
L 306.665785 248.650542 
L 309.945124 246.816055 
L 313.224463 247.884237 
L 316.503802 241.405481 
L 319.78314 243.147082 
L 323.062479 241.335817 
L 326.341818 231.791843 
L 329.621157 234.230085 
L 332.900496 235.019611 
L 336.179835 228.726625 
L 339.459174 230.630776 
L 342.738512 224.825439 
L 346.017851 221.272573 
L 349.29719 226.241941 
L 352.576529 222.271091 
L 355.855868 218.369904 
L 359.135207 211.519607 
L 362.414545 209.429686 
L 365.693884 209.383243 
L 368.973223 205.598163 
L 372.252562 197.61002 
L 375.531901 199.932154 
L 378.81124 189.087785 
L 382.090579 185.302705 
L 385.369917 169.674738 
L 388.649256 165.007247 
L 391.928595 158.110507 
L 395.207934 132.961788 
L 398.487273 53.568 
" style="fill:none;stroke:#1f77b4;stroke-linecap:square;stroke-width:1.5;"/>
   </g>
   <g id="patch_3">
    <path d="M 57.6 307.584 
L 57.6 41.472 
" style="fill:none;stroke:#000000;stroke-linecap:square;stroke-linejoin:miter;stroke-width:0.8;"/>
   </g>
   <g id="patch_4">
    <path d="M 414.72 307.584 
L 414.72 41.472 
" style="fill:none;stroke:#000000;stroke-linecap:square;stroke-linejoin:miter;stroke-width:0.8;"/>
   </g>
   <g id="patch_5">
    <path d="M 57.6 307.584 
L 414.72 307.584 
" style="fill:none;stroke:#000000;stroke-linecap:square;stroke-linejoin:miter;stroke-width:0.8;"/>
   </g>
   <g id="patch_6">
    <path d="M 57.6 41.472 
L 414.72 41.472 
" style="fill:none;stroke:#000000;stroke-linecap:square;stroke-linejoin:miter;stroke-width:0.8;"/>
   </g>
   <g id="text_13">
    <text style="font-family:DejaVu Sans;font-size:12px;font-style:normal;font-weight:normal;text-anchor:middle;" transform="rotate(-0, 236.16, 35.472)" x="236.16" y="35.472">Avg. Bits Consumed by 1 - log(1+x) (Alt. Series) Algorithm</text>
   </g>
   <g id="legend_1">
    <g id="patch_7">
     <path d="M 64.6 64.150125 
L 218.265625 64.150125 
Q 220.265625 64.150125 220.265625 62.150125 
L 220.265625 48.472 
Q 220.265625 46.472 218.265625 46.472 
L 64.6 46.472 
Q 62.6 46.472 62.6 48.472 
L 62.6 62.150125 
Q 62.6 64.150125 64.6 64.150125 
z
" style="fill:#ffffff;opacity:0.8;stroke:#cccccc;stroke-linejoin:miter;"/>
    </g>
    <g id="line2d_12">
     <path d="M 66.6 54.570438 
L 86.6 54.570438 
" style="fill:none;stroke:#1f77b4;stroke-linecap:square;stroke-width:1.5;"/>
    </g>
    <g id="line2d_13"/>
    <g id="text_14">
     <text style="font-family:DejaVu Sans;font-size:10px;font-style:normal;font-weight:normal;text-anchor:start;" transform="rotate(-0, 94.6, 58.070438)" x="94.6" y="58.070438">1 - log(1+x) (Alt. Series)</text>
    </g>
   </g>
  </g>
 </g>
 <defs>
  <clipPath id="pee3f9c5c45">
   <rect height="266.112" width="357.12" x="57.6" y="41.472"/>
  </clipPath>
 </defs>
</svg>

<svg height="460.8" viewBox="0 0 460.8 345.6" width="614.4" xmlns="http://www.w3.org/2000/svg" xmlns:xlink="http://www.w3.org/1999/xlink"><defs><style>*{stroke-linecap:butt;stroke-linejoin:round}</style></defs><g id="figure_1"><path d="M0 345.6h460.8V0H0z" fill="#fff" id="patch_1"/><g id="axes_1"><path d="M57.6 307.584h357.12V41.472H57.6z" fill="#fff" id="patch_2"/><g id="matplotlib.axis_1"><g id="xtick_1"><g id="line2d_1"><defs><path d="M0 0v3.5" id="macfaa701bf" stroke="#000" stroke-width=".8"/></defs><use x="73.8" xlink:href="#macfaa701bf" y="307.584" stroke="#000" stroke-width=".8"/></g><text x="73.8" y="322.182" font-family="DejaVu Sans" font-size="10" font-weight="400" text-anchor="middle" id="text_1">0.0</text></g><g id="xtick_2"><use x="138.744" xlink:href="#macfaa701bf" y="307.584" stroke="#000" stroke-width=".8" id="line2d_2"/><text x="138.744" y="322.182" font-family="DejaVu Sans" font-size="10" font-weight="400" text-anchor="middle" id="text_2">0.2</text></g><g id="xtick_3"><use x="203.688" xlink:href="#macfaa701bf" y="307.584" stroke="#000" stroke-width=".8" id="line2d_3"/><text x="203.688" y="322.182" font-family="DejaVu Sans" font-size="10" font-weight="400" text-anchor="middle" id="text_3">0.4</text></g><g id="xtick_4"><use x="268.632" xlink:href="#macfaa701bf" y="307.584" stroke="#000" stroke-width=".8" id="line2d_4"/><text x="268.632" y="322.182" font-family="DejaVu Sans" font-size="10" font-weight="400" text-anchor="middle" id="text_4">0.6</text></g><g id="xtick_5"><use x="333.576" xlink:href="#macfaa701bf" y="307.584" stroke="#000" stroke-width=".8" id="line2d_5"/><text x="333.576" y="322.182" font-family="DejaVu Sans" font-size="10" font-weight="400" text-anchor="middle" id="text_5">0.8</text></g><g id="xtick_6"><use x="398.52" xlink:href="#macfaa701bf" y="307.584" stroke="#000" stroke-width=".8" id="line2d_6"/><text x="398.52" y="322.182" font-family="DejaVu Sans" font-size="10" font-weight="400" text-anchor="middle" id="text_6">1.0</text></g><text x="236.16" y="335.861" font-family="DejaVu Sans" font-size="10" font-weight="400" text-anchor="middle" id="text_7">Probability</text></g><g id="matplotlib.axis_2"><g id="ytick_1"><g id="line2d_7"><defs><path d="M0 0h-3.5" id="mb3ffa5ea8a" stroke="#000" stroke-width=".8"/></defs><use x="57.6" xlink:href="#mb3ffa5ea8a" y="259.774" stroke="#000" stroke-width=".8"/></g><text x="50.6" y="263.573" font-family="DejaVu Sans" font-size="10" font-weight="400" text-anchor="end" id="text_8">5</text></g><g id="ytick_2"><use x="57.6" xlink:href="#mb3ffa5ea8a" y="201.72" stroke="#000" stroke-width=".8" id="line2d_8"/><text x="50.6" y="205.519" font-family="DejaVu Sans" font-size="10" font-weight="400" text-anchor="end" id="text_9">10</text></g><g id="ytick_3"><use x="57.6" xlink:href="#mb3ffa5ea8a" y="143.667" stroke="#000" stroke-width=".8" id="line2d_9"/><text x="50.6" y="147.466" font-family="DejaVu Sans" font-size="10" font-weight="400" text-anchor="end" id="text_10">15</text></g><g id="ytick_4"><use x="57.6" xlink:href="#mb3ffa5ea8a" y="85.613" stroke="#000" stroke-width=".8" id="line2d_10"/><text x="50.6" y="89.413" font-family="DejaVu Sans" font-size="10" font-weight="400" text-anchor="end" id="text_11">20</text></g><text transform="rotate(-90 31.795 174.528)" x="31.795" y="174.528" font-family="DejaVu Sans" font-size="10" font-weight="400" text-anchor="middle" id="text_12">Average Bits Consumed Per Call</text></g><path clip-path="url(#pee3f9c5c45)" d="M73.833 295.488l3.28-1.022 3.278-.093 3.28-1.44 3.28-.859 3.278 1.974 3.28-.58 3.28.905 3.278-1.788 3.28-.79 3.28 1.278 3.278-.79 3.28-1.09 3.28 1.671 3.278-3.646 3.28.836 3.28-1.207 3.278 1.184 3.28-2.74 3.28.395 3.279 2.763 3.279-2.415 3.28 1.463 3.279-3.32 3.279 3.761 3.28-2.833 3.279.604 3.279-.14 3.28-4.319 3.279 1.069 3.279-2.276 3.28 1.323 3.279.395 3.279-2.252 3.28 1.904 3.279-2.763 3.279-1.696h3.28l3.279 1.603 3.279-2.67 3.28-.72 3.279-.93 3.279-2.16 3.28 2.207 3.279-1.672 3.279-2.252 3.28 1.068 3.279-.302 3.279-1.37 3.28.395 3.279-2.067 3.279-.674 3.28.186 3.279-2.09 3.279-2.136 3.28-.07 3.279-1.045 3.279 1.719 3.28-2.624 3.279.905 3.28-2.392 3.278-.766 3.28-3.855 3.28-.51 3.278-.465 3.28-4.133 3.28 1.625 3.278 1.603 3.28-4.923 3.28-1.069 3.278-.394 3.28-.325 3.28-1.835 3.278 1.068 3.28-6.479 3.28 1.742 3.278-1.811 3.28-9.544 3.28 2.438 3.278.79 3.28-6.293 3.28 1.904 3.279-5.806 3.279-3.552 3.28 4.969 3.279-3.97 3.279-3.902 3.28-6.85 3.279-2.09 3.279-.047 3.28-3.785 3.279-7.988 3.279 2.322 3.28-10.844 3.279-3.785 3.279-15.628 3.28-4.668 3.279-6.896 3.279-25.15 3.28-79.393" fill="none" stroke="#1f77b4" stroke-linecap="square" stroke-width="1.5" id="line2d_11"/><path d="M57.6 307.584V41.472" fill="none" stroke="#000" stroke-linecap="square" stroke-width=".8" id="patch_3"/><path d="M414.72 307.584V41.472" fill="none" stroke="#000" stroke-linecap="square" stroke-width=".8" id="patch_4"/><path d="M57.6 307.584h357.12" fill="none" stroke="#000" stroke-linecap="square" stroke-width=".8" id="patch_5"/><path d="M57.6 41.472h357.12" fill="none" stroke="#000" stroke-linecap="square" stroke-width=".8" id="patch_6"/><text x="236.16" y="35.472" font-family="DejaVu Sans" font-size="12" font-weight="400" text-anchor="middle" id="text_13">Avg. Bits Consumed by 1 - log(1+x) (Alt. Series) Algorithm</text><g id="legend_1"><path d="M64.6 64.15h153.666q2 0 2-2V48.472q0-2-2-2H64.6q-2 0-2 2V62.15q0 2 2 2z" fill="#fff" opacity=".8" stroke="#ccc" id="patch_7"/><path d="M66.6 54.57h20" fill="none" stroke="#1f77b4" stroke-linecap="square" stroke-width="1.5" id="line2d_12"/><text x="94.6" y="58.07" font-family="DejaVu Sans" font-size="10" font-weight="400" id="text_14">1 - log(1+x) (Alt. Series)</text></g></g></g><defs><clipPath id="pee3f9c5c45"><path d="M57.6 41.472h357.12v266.112H57.6z"/></clipPath></defs></svg>
